X: 48
T:Under the Old Myrtle Tree (Bampton)
M:6/8
L:1/8
O:England; Oxfordshire; Bampton.
B:Lionel Bacon, A Handbook of Morris Dances
Z:http://www.themorrisring.org/music/handbook-morris-dances
P:A(AB4)
K:D
P:A
AFA ded|BcB GFG|EFE ede|cBc ABA|
FGF dcd|BcB e2d|cec ABc|d3  d3 ||
P:B
A2A d2d|BAc B2G|EGG e2e|cec cBA|
ABA dcd|BcB e2d|cec ABc|d3  d3 ||

